humanity-icon-theme/Humanity/devices/16/phone-motorola-droid.svg

<?xml version="1.0" encoding="UTF-8" standalone="no"?>
<!-- Created with Inkscape (http://www.inkscape.org/) -->
<svg
   xmlns:dc="http://purl.org/dc/elements/1.1/"
   xmlns:cc="http://creativecommons.org/ns#"
   xmlns:rdf="http://www.w3.org/1999/02/22-rdf-syntax-ns#"
   xmlns:svg="http://www.w3.org/2000/svg"
   xmlns="http://www.w3.org/2000/svg"
   xmlns:xlink="http://www.w3.org/1999/xlink"
   xmlns:sodipodi="http://sodipodi.sourceforge.net/DTD/sodipodi-0.dtd"
   xmlns:inkscape="http://www.inkscape.org/namespaces/inkscape"
   width="16px"
   height="16px"
   id="svg5519"
   sodipodi:version="0.32"
   inkscape:version="0.46"
   sodipodi:docname="phone-motorola-droid16.svg"
   inkscape:output_extension="org.inkscape.output.svg.inkscape">
  <defs
     id="defs5521">
    <linearGradient
       inkscape:collect="always"
       id="linearGradient3967">
      <stop
         style="stop-color:#ffffff;stop-opacity:1;"
         offset="0"
         id="stop3969" />
      <stop
         style="stop-color:#ffffff;stop-opacity:0;"
         offset="1"
         id="stop3971" />
    </linearGradient>
    <linearGradient
       inkscape:collect="always"
       xlink:href="#linearGradient3967"
       id="linearGradient3930"
       gradientUnits="userSpaceOnUse"
       gradientTransform="matrix(3.9994259e-2,0,0,4.2140267e-2,154.35152,121.03082)"
       x1="-282.75"
       y1="4.7030401"
       x2="-362.78125"
       y2="11.71875" />
    <linearGradient
       inkscape:collect="always"
       id="linearGradient3731-3">
      <stop
         style="stop-color:#cdcdcd;stop-opacity:1;"
         offset="0"
         id="stop3733-3" />
      <stop
         style="stop-color:#303030;stop-opacity:1"
         offset="1"
         id="stop3735-2" />
    </linearGradient>
    <linearGradient
       inkscape:collect="always"
       xlink:href="#linearGradient3731-3"
       id="linearGradient3935"
       gradientUnits="userSpaceOnUse"
       gradientTransform="matrix(4.1588516e-2,0,0,4.0138414e-2,154.66747,121.38251)"
       x1="-396.39911"
       y1="65.211342"
       x2="-134.39995"
       y2="65.211319" />
  </defs>
  <sodipodi:namedview
     id="base"
     pagecolor="#ffffff"
     bordercolor="#666666"
     borderopacity="1.0"
     inkscape:pageopacity="0.0"
     inkscape:pageshadow="2"
     inkscape:zoom="22.197802"
     inkscape:cx="1.1524752"
     inkscape:cy="8"
     inkscape:current-layer="layer1"
     showgrid="true"
     inkscape:grid-bbox="true"
     inkscape:document-units="px" />
  <metadata
     id="metadata5524">
    <rdf:RDF>
      <cc:Work
         rdf:about="">
        <dc:format>image/svg+xml</dc:format>
        <dc:type
           rdf:resource="http://purl.org/dc/dcmitype/StillImage" />
      </cc:Work>
    </rdf:RDF>
  </metadata>
  <g
     id="layer1"
     inkscape:label="Layer 1"
     inkscape:groupmode="layer">
    <g
       style="opacity:1;display:inline;enable-background:new"
       id="g5508"
       transform="translate(-134,-116)">
      <rect
         style="opacity:1;fill:#030303;fill-opacity:1;stroke:none;stroke-width:0.09999999;marker:none;visibility:visible;display:inline;overflow:visible;enable-background:accumulate"
         id="rect3865"
         width="8.3597937"
         height="14.978619"
         x="138"
         y="116.6172"
         ry="0.52411157" />
      <path
         sodipodi:nodetypes="cccccccccc"
         id="path3881"
         d="M 138.69919,117.5 L 145.30081,117.5 C 145.41115,117.5 145.5,117.61467 145.5,117.7571 L 145.5,130.24289 C 145.5,130.38532 145.41115,130.5 145.30081,130.5 L 138.69919,130.5 C 138.58883,130.5 138.50001,130.38532 138.50001,130.24289 L 138.50001,130.15275 L 138.50001,117.7571 C 138.50001,117.61467 138.58883,117.5 138.69919,117.5 L 138.69919,117.5 z"
         style="opacity:1;fill:#030303;fill-opacity:1;stroke:url(#linearGradient3935);stroke-width:1.00000024;stroke-linecap:square;stroke-linejoin:miter;marker:none;stroke-miterlimit:4;stroke-dasharray:none;stroke-dashoffset:0;stroke-opacity:1;visibility:visible;display:inline;overflow:visible;enable-background:accumulate" />
      <path
         sodipodi:type="inkscape:offset"
         inkscape:radius="-1.7107865"
         inkscape:original="M -385.65625 -110.03125 C -392.73027 -110.03125 -398.4375 -104.32402 -398.4375 -97.25 L -398.4375 242.125 C -398.4375 249.19902 -392.73027 254.90625 -385.65625 254.90625 L -223.5 254.90625 C -216.42598 254.90625 -210.75 249.19902 -210.75 242.125 L -210.75 -97.25 C -210.75 -104.32402 -216.42598 -110.03125 -223.5 -110.03125 L -385.65625 -110.03125 z "
         style="opacity:1;fill:none;stroke:#000000;stroke-width:22.33444214;marker:none;stroke-miterlimit:4;stroke-dasharray:none;stroke-opacity:1;visibility:visible;display:inline;overflow:visible;enable-background:accumulate"
         id="path3885"
         d="M -385.65625,-108.3125 C -391.81011,-108.3125 -396.71875,-103.40386 -396.71875,-97.25 L -396.71875,242.125 C -396.71875,248.27886 -391.81011,253.1875 -385.65625,253.1875 L -223.5,253.1875 C -217.34614,253.1875 -212.46875,248.2839 -212.46875,242.125 L -212.46875,-97.25 C -212.46875,-103.4089 -217.34614,-108.3125 -223.5,-108.3125 L -385.65625,-108.3125 z"
         transform="matrix(4.8309554e-2,0,0,4.1497001e-2,156.71479,120.99406)" />
      <rect
         ry="0"
         y="119"
         x="140"
         height="8"
         width="4"
         id="rect3887"
         style="opacity:1;fill:#2d2d2d;fill-opacity:1;stroke:none;stroke-width:2.01121116;marker:none;visibility:visible;display:inline;overflow:visible;enable-background:accumulate" />
      <path
         id="path3889"
         d="M 138.99497,116.95507 C 138.88885,116.95507 138.80375,117.07252 138.80375,117.21976 L 138.80375,130.03303 L 138.80375,130.12653 C 138.80375,130.27376 138.88885,130.39254 138.99497,130.39254 L 140.68099,130.39254 C 141.31857,125.9134 141.76753,121.4342 142.04204,116.95507 L 138.99497,116.95507 z"
         style="opacity:0.1;fill:url(#linearGradient3930);fill-opacity:1;stroke:none;stroke-width:1.4642123;stroke-linecap:square;stroke-linejoin:miter;marker:none;stroke-miterlimit:4;stroke-dashoffset:0;stroke-opacity:1;visibility:visible;display:inline;overflow:visible;enable-background:accumulate" />
      <rect
         style="opacity:1;fill:#ffffff;fill-opacity:1;fill-rule:nonzero;stroke:none;stroke-width:0.5;stroke-linecap:round;stroke-linejoin:round;marker:none;marker-start:none;marker-mid:none;marker-end:none;stroke-miterlimit:4;stroke-dasharray:none;stroke-dashoffset:0.06;stroke-opacity:1;visibility:visible;display:inline;overflow:visible;enable-background:accumulate"
         id="rect3891"
         width="0.68198878"
         height="0.68198878"
         x="141"
         y="128.31801" />
      <rect
         style="opacity:1;fill:#ffffff;fill-opacity:1;fill-rule:nonzero;stroke:none;stroke-width:0.5;stroke-linecap:round;stroke-linejoin:round;marker:none;marker-start:none;marker-mid:none;marker-end:none;stroke-miterlimit:4;stroke-dasharray:none;stroke-dashoffset:0.06;stroke-opacity:1;visibility:visible;display:inline;overflow:visible;enable-background:accumulate"
         id="rect3893"
         width="0.68198878"
         height="0.68198878"
         x="140"
         y="128.31801" />
      <rect
         style="opacity:1;fill:#ffffff;fill-opacity:1;fill-rule:nonzero;stroke:none;stroke-width:0.5;stroke-linecap:round;stroke-linejoin:round;marker:none;marker-start:none;marker-mid:none;marker-end:none;stroke-miterlimit:4;stroke-dasharray:none;stroke-dashoffset:0.06;stroke-opacity:1;visibility:visible;display:inline;overflow:visible;enable-background:accumulate"
         id="rect3895"
         width="0.68198878"
         height="0.68198878"
         x="142.31801"
         y="128.31801" />
      <rect
         style="opacity:1;fill:#ffffff;fill-opacity:1;fill-rule:nonzero;stroke:none;stroke-width:0.5;stroke-linecap:round;stroke-linejoin:round;marker:none;marker-start:none;marker-mid:none;marker-end:none;stroke-miterlimit:4;stroke-dasharray:none;stroke-dashoffset:0.06;stroke-opacity:1;visibility:visible;display:inline;overflow:visible;enable-background:accumulate"
         id="rect3897"
         width="0.68198878"
         height="0.68198878"
         x="143.31801"
         y="128.31801" />
    </g>
  </g>
</svg>

<?xml version="1.0" encoding="UTF-8" standalone="no"?>
<!-- Created with Inkscape (http://www.inkscape.org/) -->
<svg id="svg5519" xmlns:rdf="http://www.w3.org/1999/02/22-rdf-syntax-ns#" xmlns="http://www.w3.org/2000/svg" height="16px" width="16px" xmlns:cc="http://creativecommons.org/ns#" xmlns:xlink="http://www.w3.org/1999/xlink" xmlns:dc="http://purl.org/dc/elements/1.1/">
 <defs id="defs5521">
  <linearGradient id="linearGradient3930" y2="11.719" gradientUnits="userSpaceOnUse" x2="-362.78" gradientTransform="matrix(.039994 0 0 .042140 154.35 121.03)" y1="4.703" x1="-282.75">
   <stop id="stop3969" style="stop-color:#fff" offset="0"/>
   <stop id="stop3971" style="stop-color:#fff;stop-opacity:0" offset="1"/>
  </linearGradient>
  <linearGradient id="linearGradient3935" y2="65.211" gradientUnits="userSpaceOnUse" x2="-134.4" gradientTransform="matrix(.041589 0 0 .040138 154.67 121.38)" y1="65.211" x1="-396.4">
   <stop id="stop3733-3" style="stop-color:#cdcdcd" offset="0"/>
   <stop id="stop3735-2" style="stop-color:#303030" offset="1"/>
  </linearGradient>
 </defs>
 <metadata id="metadata5524">
  <rdf:RDF>
   <cc:Work rdf:about="">
    <dc:format>image/svg+xml</dc:format>
    <dc:type rdf:resource="http://purl.org/dc/dcmitype/StillImage"/>
   </cc:Work>
  </rdf:RDF>
 </metadata>
 <g id="layer1">
  <g id="g5508" style="enable-background:new" transform="translate(-134,-116)">
   <rect id="rect3865" style="enable-background:accumulate;fill:#030303" ry=".52411" height="14.979" width="8.3598" y="116.62" x="138"/>
   <path id="path3881" style="stroke:url(#linearGradient3935);stroke-linecap:square;enable-background:accumulate;fill:#030303" d="m138.7 117.5h6.6c0.11 0 0.2 0.11 0.2 0.26v12.48c0 0.15-0.09 0.26-0.2 0.26h-6.6c-0.11 0-0.2-0.11-0.2-0.26v-0.09-12.39c0-0.15 0.09-0.26 0.2-0.26z"/>
   <path id="path3885" style="stroke-width:22.334;stroke:#000;enable-background:accumulate;fill:none" d="m-385.66-108.31c-6.15 0-11.06 4.91-11.06 11.06v339.37c0 6.16 4.91 11.07 11.06 11.07h162.16c6.15 0 11.03-4.91 11.03-11.07v-339.37c0-6.16-4.88-11.06-11.03-11.06h-162.16z" transform="matrix(.048310 0 0 .041497 156.71 120.99)"/>
   <rect id="rect3887" style="enable-background:accumulate;fill:#2d2d2d" ry="0" height="8" width="4" y="119" x="140"/>
   <path id="path3889" style="opacity:.1;enable-background:accumulate;fill:url(#linearGradient3930)" d="m138.99 116.96c-0.1 0-0.19 0.11-0.19 0.26v12.81 0.1c0 0.14 0.09 0.26 0.19 0.26h1.69c0.64-4.48 1.09-8.96 1.36-13.43h-3.05z"/>
   <rect id="rect3891" style="enable-background:accumulate;fill:#fff" height=".68199" width=".68199" y="128.32" x="141"/>
   <rect id="rect3893" style="enable-background:accumulate;fill:#fff" height=".68199" width=".68199" y="128.32" x="140"/>
   <rect id="rect3895" style="enable-background:accumulate;fill:#fff" height=".68199" width=".68199" y="128.32" x="142.32"/>
   <rect id="rect3897" style="enable-background:accumulate;fill:#fff" height=".68199" width=".68199" y="128.32" x="143.32"/>
  </g>
 </g>
</svg>
